Newaita-dark/mimetypes/32/x-office-address-book.svg

<?xml version="1.0" encoding="UTF-8"?>
<svg xmlns="http://www.w3.org/2000/svg" xmlns:xlink="http://www.w3.org/1999/xlink" width="32pt" height="32pt" viewBox="0 0 32 32" version="1.1">
<defs>
<linearGradient id="linear0" gradientUnits="userSpaceOnUse" x1="254" y1="233.5" x2="254" y2="254.666672" gradientTransform="matrix(0.062506,0,0,0.062506,-0.00000381506,13.438785)">
<stop offset="0" style="stop-color:rgb(0%,0%,0%);stop-opacity:0.27451;"/>
<stop offset="1" style="stop-color:rgb(0%,0%,0%);stop-opacity:0;"/>
</linearGradient>
<radialGradient id="radial0" gradientUnits="userSpaceOnUse" cx="450.908936" cy="189.579361" fx="450.908936" fy="189.579361" r="21.166656" gradientTransform="matrix(0.00000017417,-0.0781325,-0.140638,-0.000000101539,50.146086,63.595333)">
<stop offset="0" style="stop-color:rgb(0%,0%,0%);stop-opacity:0.313725;"/>
<stop offset="0.222222" style="stop-color:rgb(0%,0%,0%);stop-opacity:0.27451;"/>
<stop offset="1" style="stop-color:rgb(0%,0%,0%);stop-opacity:0;"/>
</radialGradient>
<radialGradient id="radial1" gradientUnits="userSpaceOnUse" cx="450.908936" cy="189.579361" fx="450.908936" fy="189.579361" r="21.166656" gradientTransform="matrix(-0.00000017417,0.0781325,0.140638,0.000000101539,-18.393049,-7.52748)">
<stop offset="0" style="stop-color:rgb(0%,0%,0%);stop-opacity:0.313725;"/>
<stop offset="0.222222" style="stop-color:rgb(0%,0%,0%);stop-opacity:0.27451;"/>
<stop offset="1" style="stop-color:rgb(0%,0%,0%);stop-opacity:0;"/>
</radialGradient>
<radialGradient id="radial2" gradientUnits="userSpaceOnUse" cx="450.908936" cy="189.579361" fx="450.908936" fy="189.579361" r="21.166656" gradientTransform="matrix(-0.00000017417,-0.0781325,0.140638,-0.000000101539,-18.393049,63.595333)">
<stop offset="0" style="stop-color:rgb(0%,0%,0%);stop-opacity:0.313725;"/>
<stop offset="0.222222" style="stop-color:rgb(0%,0%,0%);stop-opacity:0.27451;"/>
<stop offset="1" style="stop-color:rgb(0%,0%,0%);stop-opacity:0;"/>
</radialGradient>
<radialGradient id="radial3" gradientUnits="userSpaceOnUse" cx="450.908936" cy="189.579361" fx="450.908936" fy="189.579361" r="21.166656" gradientTransform="matrix(0.00000017417,0.0781325,-0.140638,0.000000101539,50.146084,-7.527479)">
<stop offset="0" style="stop-color:rgb(0%,0%,0%);stop-opacity:0.313725;"/>
<stop offset="0.222222" style="stop-color:rgb(0%,0%,0%);stop-opacity:0.27451;"/>
<stop offset="1" style="stop-color:rgb(0%,0%,0%);stop-opacity:0;"/>
</radialGradient>
<linearGradient id="linear1" gradientUnits="userSpaceOnUse" x1="306.916656" y1="-25.791676" x2="305.954559" y2="-141.414581" gradientTransform="matrix(0.0753497,0,0,0.217412,-5.854013,33.641348)">
<stop offset="0" style="stop-color:rgb(73.72549%,66.666667%,64.313725%);stop-opacity:1;"/>
<stop offset="1" style="stop-color:rgb(84.313725%,80%,78.431373%);stop-opacity:1;"/>
</linearGradient>
<linearGradient id="linear2" gradientUnits="userSpaceOnUse" x1="165.484848" y1="-25.791672" x2="165.484848" y2="-141.414581" gradientTransform="matrix(4.556143,0,0,13.146184,-353.972656,2034.180176)">
<stop offset="0" style="stop-color:rgb(55.294118%,43.137255%,38.823529%);stop-opacity:1;"/>
<stop offset="1" style="stop-color:rgb(63.137255%,53.333333%,49.803922%);stop-opacity:1;"/>
</linearGradient>
<linearGradient id="linear3" gradientUnits="userSpaceOnUse" x1="920" y1="1786.046997" x2="920" y2="266.046936" gradientTransform="matrix(0.264583,0,0,0.264583,31.750002,-239.058243)">
<stop offset="0" style="stop-color:rgb(55.294118%,43.137255%,38.823529%);stop-opacity:1;"/>
<stop offset="1" style="stop-color:rgb(63.137255%,53.333333%,49.803922%);stop-opacity:1;"/>
</linearGradient>
</defs>
<g id="surface1">
<path style=" stroke:none;fill-rule:nonzero;fill:url(#linear0);" d="M 7.9375 28.035156 L 23.816406 28.035156 L 23.816406 29.355469 L 7.9375 29.355469 Z M 7.9375 28.035156 "/>
<path style=" stroke:none;fill-rule:nonzero;fill:url(#radial0);" d="M 23.816406 28.035156 L 26.460938 28.035156 L 26.460938 26.710938 L 23.816406 26.710938 Z M 23.816406 28.035156 "/>
<path style=" stroke:none;fill-rule:nonzero;fill:url(#radial1);" d="M 7.9375 28.035156 L 5.292969 28.035156 L 5.292969 29.355469 L 7.9375 29.355469 Z M 7.9375 28.035156 "/>
<path style=" stroke:none;fill-rule:nonzero;fill:url(#radial2);" d="M 7.9375 28.035156 L 5.292969 28.035156 L 5.292969 26.710938 L 7.9375 26.710938 Z M 7.9375 28.035156 "/>
<path style=" stroke:none;fill-rule:nonzero;fill:url(#radial3);" d="M 23.816406 28.035156 L 26.460938 28.035156 L 26.460938 29.355469 L 23.816406 29.355469 Z M 23.816406 28.035156 "/>
<path style=" stroke:none;fill-rule:nonzero;fill:url(#linear1);" d="M 6.613281 2.894531 L 25.136719 2.894531 C 25.867188 2.894531 26.460938 3.488281 26.460938 4.21875 L 26.460938 26.710938 C 26.460938 27.441406 25.867188 28.035156 25.136719 28.035156 L 6.613281 28.035156 C 5.882812 28.035156 5.292969 27.441406 5.292969 26.710938 L 5.292969 4.21875 C 5.292969 3.488281 5.882812 2.894531 6.613281 2.894531 Z M 6.613281 2.894531 "/>
<path style="fill-rule:nonzero;fill:url(#linear2);stroke-width:11.338583;stroke-linecap:round;stroke-linejoin:miter;stroke:rgb(12.941177%,12.941177%,12.941177%);stroke-opacity:1;stroke-miterlimit:4;" d="M 399.883094 175.022665 C 355.714081 175.022665 320.048194 210.688553 320.048194 255.093763 L 320.048194 1615.121439 C 320.048194 1659.52665 355.714081 1695.192537 399.883094 1695.192537 L 520.10784 1695.192537 L 520.10784 175.022665 Z M 399.883094 175.022665 " transform="matrix(0.016538,0,0,0.016538,0,0)"/>
<path style=" stroke:none;fill-rule:nonzero;fill:rgb(0%,0%,0%);fill-opacity:0.196078;" d="M 6.613281 27.960938 C 5.882812 27.960938 5.292969 27.367188 5.292969 26.636719 L 5.292969 26.472656 C 5.292969 27.203125 5.882812 27.792969 6.613281 27.792969 L 25.136719 27.792969 C 25.871094 27.792969 26.460938 27.203125 26.460938 26.472656 L 26.460938 26.636719 C 26.460938 27.367188 25.871094 27.960938 25.136719 27.960938 Z M 6.613281 27.960938 "/>
<path style=" stroke:none;fill-rule:nonzero;fill:rgb(100%,100%,100%);fill-opacity:0.392157;" d="M 6.613281 2.972656 C 5.882812 2.972656 5.292969 3.5625 5.292969 4.292969 L 5.292969 4.460938 C 5.292969 3.726562 5.882812 3.136719 6.613281 3.136719 L 25.136719 3.136719 C 25.871094 3.136719 26.460938 3.726562 26.460938 4.460938 L 26.460938 4.292969 C 26.460938 3.5625 25.871094 2.972656 25.136719 2.972656 Z M 6.613281 2.972656 "/>
<path style=" stroke:none;fill-rule:nonzero;fill:rgb(12.941177%,12.941177%,12.941177%);fill-opacity:1;" d="M 6.617188 2.800781 C 5.832031 2.800781 5.199219 3.4375 5.199219 4.21875 L 5.199219 26.710938 C 5.199219 27.496094 5.832031 28.128906 6.617188 28.128906 L 25.136719 28.128906 C 25.921875 28.128906 26.554688 27.496094 26.554688 26.710938 L 26.554688 4.21875 C 26.554688 3.4375 25.921875 2.800781 25.136719 2.800781 Z M 6.617188 2.988281 L 25.136719 2.988281 C 25.820312 2.988281 26.367188 3.535156 26.367188 4.21875 L 26.367188 26.710938 C 26.367188 27.394531 25.820312 27.941406 25.136719 27.941406 L 6.617188 27.941406 C 5.933594 27.941406 5.386719 27.394531 5.386719 26.710938 L 5.386719 4.21875 C 5.386719 3.535156 5.933594 2.988281 6.617188 2.988281 Z M 6.617188 2.988281 "/>
<path style="fill-rule:nonzero;fill:url(#linear3);stroke-width:3.362691;stroke-linecap:round;stroke-linejoin:round;stroke:rgb(12.941177%,12.941177%,12.941177%);stroke-opacity:1;stroke-miterlimit:4;" d="M 280.473216 -55.140266 C 259.91268 -55.140266 243.414255 -38.641841 243.414255 -18.081305 C 243.414255 2.416738 259.91268 18.915162 280.473216 18.915162 C 300.971259 18.915162 317.469683 2.416738 317.469683 -18.081305 C 317.469683 -38.641841 300.971259 -55.140266 280.473216 -55.140266 Z M 254.413205 32.413873 C 225.603456 39.038241 204.355485 56.411581 201.418266 77.47207 C 201.230783 78.221999 201.105795 78.971927 201.105795 79.78435 L 201.105795 85.096342 C 201.105795 89.470924 204.605461 93.033084 209.042537 93.033084 L 351.903895 93.033084 C 356.278477 93.033084 359.840637 89.470924 359.840637 85.096342 L 359.840637 79.78435 C 359.840637 78.971927 359.715649 78.221999 359.465673 77.47207 C 356.590947 56.411581 335.342976 39.038241 306.470734 32.413873 C 299.033944 37.288408 290.097297 40.100639 280.473216 40.100639 C 270.849135 40.100639 261.912489 37.288408 254.413205 32.413873 Z M 254.413205 32.413873 " transform="matrix(0.062506,0,0,0.062506,0,13.438783)"/>
</g>
</svg>

<svg xmlns="http://www.w3.org/2000/svg" width="32pt" height="32pt" viewBox="0 0 32 32"><defs><linearGradient id="a" gradientUnits="userSpaceOnUse" x1="254" y1="233.5" x2="254" y2="254.667" gradientTransform="matrix(.0625 0 0 .0625 0 13.439)"><stop offset="0" stop-opacity=".275"/><stop offset="1" stop-opacity="0"/></linearGradient><radialGradient id="b" gradientUnits="userSpaceOnUse" cx="450.909" cy="189.579" fx="450.909" fy="189.579" r="21.167" gradientTransform="matrix(0 -.07813 -.14064 0 50.146 63.595)"><stop offset="0" stop-opacity=".314"/><stop offset=".222" stop-opacity=".275"/><stop offset="1" stop-opacity="0"/></radialGradient><radialGradient id="c" gradientUnits="userSpaceOnUse" cx="450.909" cy="189.579" fx="450.909" fy="189.579" r="21.167" gradientTransform="matrix(0 .07813 .14064 0 -18.393 -7.527)"><stop offset="0" stop-opacity=".314"/><stop offset=".222" stop-opacity=".275"/><stop offset="1" stop-opacity="0"/></radialGradient><radialGradient id="d" gradientUnits="userSpaceOnUse" cx="450.909" cy="189.579" fx="450.909" fy="189.579" r="21.167" gradientTransform="matrix(0 -.07813 .14064 0 -18.393 63.595)"><stop offset="0" stop-opacity=".314"/><stop offset=".222" stop-opacity=".275"/><stop offset="1" stop-opacity="0"/></radialGradient><radialGradient id="e" gradientUnits="userSpaceOnUse" cx="450.909" cy="189.579" fx="450.909" fy="189.579" r="21.167" gradientTransform="matrix(0 .07813 -.14064 0 50.146 -7.527)"><stop offset="0" stop-opacity=".314"/><stop offset=".222" stop-opacity=".275"/><stop offset="1" stop-opacity="0"/></radialGradient><linearGradient id="f" gradientUnits="userSpaceOnUse" x1="306.917" y1="-25.792" x2="305.955" y2="-141.415" gradientTransform="matrix(.07535 0 0 .21741 -5.854 33.641)"><stop offset="0" stop-color="#bcaaa4"/><stop offset="1" stop-color="#d7ccc8"/></linearGradient><linearGradient id="g" gradientUnits="userSpaceOnUse" x1="165.485" y1="-25.792" x2="165.485" y2="-141.415" gradientTransform="matrix(4.55614 0 0 13.14618 -353.973 2034.18)"><stop offset="0" stop-color="#8d6e63"/><stop offset="1" stop-color="#a1887f"/></linearGradient><linearGradient id="h" gradientUnits="userSpaceOnUse" x1="920" y1="1786.047" x2="920" y2="266.047" gradientTransform="matrix(.26458 0 0 .26458 31.75 -239.058)"><stop offset="0" stop-color="#8d6e63"/><stop offset="1" stop-color="#a1887f"/></linearGradient></defs><path d="M7.938 28.035h15.878v1.32H7.938zm0 0" fill="url(#a)"/><path d="M23.816 28.035h2.645v-1.324h-2.645zm0 0" fill="url(#b)"/><path d="M7.938 28.035H5.293v1.32h2.644zm0 0" fill="url(#c)"/><path d="M7.938 28.035H5.293v-1.324h2.644zm0 0" fill="url(#d)"/><path d="M23.816 28.035h2.645v1.32h-2.645zm0 0" fill="url(#e)"/><path d="M6.613 2.895h18.524c.73 0 1.324.593 1.324 1.324V26.71c0 .73-.594 1.324-1.324 1.324H6.613c-.73 0-1.32-.594-1.32-1.324V4.219c0-.73.59-1.324 1.32-1.324zm0 0" fill="url(#f)"/><path d="M399.883 175.023c-44.169 0-79.835 35.666-79.835 80.07v1360.028c0 44.406 35.666 80.072 79.835 80.072h120.225V175.023zm0 0" transform="rotate(.891) scale(.01654)" fill="url(#g)" stroke-width="11.339" stroke-linecap="round" stroke="#212121"/><path d="M6.613 27.96c-.73 0-1.32-.593-1.32-1.323v-.164c0 .73.59 1.32 1.32 1.32h18.524a1.32 1.32 0 0 0 1.324-1.32v.164c0 .73-.59 1.324-1.324 1.324zm0 0" fill-opacity=".196"/><path d="M6.613 2.973c-.73 0-1.32.59-1.32 1.32v.168c0-.734.59-1.324 1.32-1.324h18.524c.734 0 1.324.59 1.324 1.324v-.168c0-.73-.59-1.32-1.324-1.32zm0 0" fill="#fff" fill-opacity=".392"/><path d="M6.617 2.8C5.832 2.8 5.2 3.439 5.2 4.22V26.71c0 .785.633 1.418 1.418 1.418h18.52c.785 0 1.418-.633 1.418-1.418V4.219c0-.782-.633-1.418-1.418-1.418zm0 .188h18.52c.683 0 1.23.547 1.23 1.23v22.493c0 .684-.547 1.23-1.23 1.23H6.617c-.683 0-1.23-.546-1.23-1.23V4.219c0-.684.547-1.23 1.23-1.23zm0 0" fill="#212121"/><path d="M280.473-55.14a36.94 36.94 0 0 0-37.059 37.059c0 20.498 16.499 36.996 37.06 36.996 20.497 0 36.996-16.498 36.996-36.996 0-20.56-16.499-37.06-36.997-37.06zm-26.06 87.554c-28.81 6.624-50.058 23.998-52.995 45.058-.187.75-.312 1.5-.312 2.312v5.312c0 4.375 3.5 7.937 7.937 7.937h142.86c4.375 0 7.938-3.562 7.938-7.937v-5.312c0-.812-.125-1.562-.375-2.312-2.875-21.06-24.123-38.434-52.995-45.058-7.437 4.874-16.374 7.687-25.998 7.687-9.624 0-18.56-2.813-26.06-7.687zm0 0" transform="matrix(.0625 0 0 .0625 0 13.439)" fill="url(#h)" stroke-width="3.363" stroke-linecap="round" stroke-linejoin="round" stroke="#212121"/></svg>
